X: 1
T: Lochanside
C: Pipe Major John McLellan DCM (1875-1949)
R: retreat march
N: Scots Guards v.1
Z: 2014 John Chambers <jc:trillian.mit.edu>
B: BSFC Session Tune Book 2016 p.36
S: page from Concord Slow Scottish Session collection labelled "PIPER'S CORNER  SRSNH 4/95  7.26-A"
M: 3/4
L: 1/8
K: D
"A"\
[|] "A7"d>e |\
"D"f2 fa ge | "D"f2 d2 a>f | "D"d2 d>e fA | "Em"f2 e2 e>d |\
"A7"c2 ca ge | "D"d2 A2 "D7"e>f | "G"g2 gB "A7"cA | "D"d2 d2 :|
"B"\
|: "A7"d>f |\
"D"a2 a>g fg | "D"a2 f2 "D7"dA | "G"B2 g>f ed | "Em"f2 e2 e>d |\
"A7"c2 ca ge | "D"d2 A2 "D7"e>f | "G"g2 gB "A7"cA | "D"d2 d2 :|
"C"\
|: "E7"c>B |\
"A7"A2 Ac eg | "D"f2 d2 "E7"c>B | "A7"A2 Ac a>g | "D"f2 "A"eA "A7"df |\
"D"a2 fa "D7"g/f/e/d/ | "G"c2 B2 e>f | "Em"g2 gB "A7"cA | "D"d2 d2 :|
